!!!!SEGMENT: pl-kk--kk-i-389--010-005_anonim--missa-no-10-sanctus.krn
!!!cenid: 17xx:2526
!!!COM: Anonim
!!!COM-rismID: pe30004985
!!!CDT:
!!!CNT:
!!!OPR: [Missa] No. 10.
!!!OTL: Sanctus
!!!OMV: 005
!!!PDT:
!!!AGN: Sacred; Mass
!!!YEC: Copyright 2022 Narodowy Instytut Fryderyka Chopina (https://polishscores.org)
!!!YEM: License CC-BY-4.0 (https://creativecommons.org/licenses/by/4.0)
!!!SMS-siglum: PL-Kk
!!!SMS-shelfmark: Kk.I.389
!!!SMS-variant:
!!!SMS-altvar:
!!!SMS-shelfwork: 010-005 M
!!!NIFC-rismSourceID: 1001146182
!!!NIFC-rismChildID: 1001147254
!!!NIFC-islandoraID: pl-kk:6976
!!!URL-pdf-islandora: https://repozytorium.nifc.pl/islandora/object/pl-kk%3A6976/datastream/PDF/view
!!!URL-scan: https://polish.musicsources.pl/pl/lokalizacje/galeria/rekopisy/5999/1 @EN{Scan on Polish Music Sources Website} @PL{Skany w portalu Dziedzictwo Muzyki Polskiej w otwartym dostępie}
!!!IIIF:
!!!ONB-nifc: UWAGA: S – skan 17-18, A – 36-37, T – 55-56, B – 74-75. Części Mszy: Rorate, Kyrie, Gloria, Graduale, Sanctus, Benedictus, Agnus, Dona.
!!!AIN: 1 alto 1 bass 1 soprn 1 tenor
!!!key:
**kern	**text	**kern	**text	**kern	**text	**kern	**text
*part4	*part4	*part3	*part3	*part2	*part2	*part1	*part1
*staff4	*staff4	*staff3	*staff3	*staff2	*staff2	*staff1	*staff1
*I"Basso.	*	*I"Tenore.	*	*I"Alto	*	*I"Soprano.	*
*I'B	*	*I'T	*	*I'A	*	*I'S	*
*ICvox	*	*ICvox	*	*ICvox	*	*ICvox	*
*Ibass	*	*Itenor	*	*Ialto	*	*Isoprn	*
*clefF4	*	*clefC4	*	*clefC3	*	*clefC1	*
*k[b-]	*	*k[b-]	*	*k[b-]	*	*k[b-]	*
*F:	*	*F:	*	*F:	*	*F:	*
*M3/4	*	*M3/4	*	*M3/4	*	*M3/4	*
=1	=1	=1	=1	=1	=1	=1	=1
*	*	*	*	*	*	*all\right:global	*
4.F\	San-	4.A\	San-	4.a\	San-	4.cc\	San-
8G\	.	8B-\	.	8g\	.	8b-\	.
4A\	-ctus	4c\	-ctus	4f\	.	4a\	.
=2	=2	=2	=2	=2	=2	=2	=2
4G\	san-	4d\	san-	16g\LL	.	16b-\LL	.
.	.	.	.	16a\	.	16cc\	.
.	.	.	.	16b-\	.	16dd\	.
.	.	.	.	16g\JJ	.	16b-\JJ	.
*	*	*2\right	*	*	*	*	*
4c\	.	2c\	.	4f\	.	4a\	.
4C/	.	.	.	4e\	.	4g\	.
=3	=3	=3	=3	=3	=3	=3	=3
*2\right	*	*	*	*2\right	*	*2\right	*
!	!	!	!	!	!	!LO:TX:t=P:problem: wymazane ćwierćnuty	!
2.F\	-ctus	2.c\	-ctus	2.f\	-ctus,	2.a\	-ctus
=4	=4	=4	=4	=4	=4	=4	=4
2E\	San-	2c#X\	san-	2g\	San-	2b-\	San-
4A\	.	4d\	.	4f\	.	4a\	.
=5	=5	=5	=5	=5	=5	=5	=5
2D\	.	2d\	.	2f\	.	2a\	.
4G\	-ctus	4Bn\	-ctus	4d\	-ctus	4g\	-ctus
!	!	!	!	!	!	!LO:LB:g=original	!
=6	=6	=6	=6	=6	=6	=6	=6
4.C/	Do-	4.cn\	Do-	4.e\	Do-	4.g\	Do-
8C/	-mi-	8c\	-mi-	8f\	-mi-	8a\	-mi-
4C/	-nus	4c\	-nus	4e\	-nus	4g\	-nus
!	!	!	!	!LO:LB:g=original	!	!	!
=7	=7	=7	=7	=7	=7	=7	=7
!	!	!LO:TX:a:t=1.	!	!	!	!	!
2C/	De-	2.r	.	2e\	De-	4g\	De-
.	.	.	.	.	.	4g\	.
4C/	-us	.	.	4f#X\	-us	4a\	-us
!LO:LB:g=original	!	!	!	!	!	!	!
=8	=8	=8	=8	=8	=8	=8	=8
4.BB-/	Do-	4d\	Do-	4g\	De-	4b-\	De-
.	.	4c\	-mi-	4fn\	.	4a\	.
8C/	-mi-	.	.	.	.	.	.
4BB-/	-nus	4c\	-nus	4e\	-us	4g\	-us
!	!	!LO:LB:g=original	!	!	!	!	!
=9	=9	=9	=9	=9	=9	=9	=9
2AA/	De-	2c\	De-	2f\	De-	4.cc\	De-
.	.	.	.	.	.	8ff\	.
4AA/	-us	4c\	-us	4f\	-us	4cc\	-us
=10	=10	=10	=10	=10	=10	=10	=10
!LO:TX:a:t=1.	!	!	!	!	!	!	!
2.r	.	4r	.	2f\	sa-	2a\	sa-
.	.	4F/	sa-	.	.	.	.
.	.	8G/L	-ba-	4e\	-ba-	4g\	-ba-
.	.	8A/J	.	.	.	.	.
=11	=11	=11	=11	=11	=11	=11	=11
!	!	!	!LO:SIC:v:o=-ot,	!	!LO:SIC:v:o=-ot,	!	!LO:SIC:v:o=-ot,
4r	.	2.B-\	-oth,	2.d\	-oth,	2.f\	-oth,
8B-\	sa-	.	.	.	.	.	.
8BB-/	-ba-	.	.	.	.	.	.
!	!LO:SIC:v:o=-ot,	!	!	!	!	!	!
4BB-/	-oth,	.	.	.	.	.	.
=12	=12	=12	=12	=12	=12	=12	=12
!LO:TX:a:t=1.	!	!	!	!	!	!	!
2.r	.	4r	.	2g\	Ple-	2b-\	Ple-
.	.	4G/	Ple-	.	.	.	.
.	.	8A/L	.	4f\	.	4a\	.
.	.	8B-/J	.	.	.	.	.
=13	=13	=13	=13	=13	=13	=13	=13
4r	.	2.c\	-ni	2.e\	-ni	2.g\	-ni
4c\	ple-	.	.	.	.	.	.
4C/	-ni	.	.	.	.	.	.
!	!	!	!	!	!	!LO:LB:g=original	!
=14	=14	=14	=14	=14	=14	=14	=14
!	!	!	!	!	!	!LO:N:vis=2.	!
4r	.	2e\	Ple-	2g\	Ple-	2cc\	Ple-
4C/	ple-	.	.	.	.	.	.
8D/	-ni	8d\L	.	8f\L	-ni	4b-\	.
8E/	sunt	8c\J	.	8g\J	.	.	.
=15	=15	=15	=15	=15	=15	=15	=15
!	!LO:SIC:v:o=ce-	!	!	!	!LO:SIC:v:o=sun	!	!
4F\	coe-	2c\	-ni	4f\	sunt	4a\	.
!	!	!	!	!	!LO:SIC:v:o=ce-	!	!
4F\	-li	.	.	4a\	coe-	4cc\	-ni
4r	.	4c\	sunt	4f\	-li	4a\	sunt
=16	=16	=16	=16	=16	=16	=16	=16
!	!	!	!LO:SIC:v:o=ce-	!	!LO:TX:a:t=1.	!	!LO:SIC:v:o=ce-
4r	.	2A\	coe-	2.r	.	2f/	coe-
!	!LO:SIC:v:o=ce-	!	!	!	!	!	!
4F\	coe-	.	.	.	.	.	.
!LO:LB:g=original	!	!	!	!	!	!	!
8E-X\	-li	8B-\L	.	.	.	8g/L	.
8E-\	et	8c\J	.	.	.	8a/J	.
!	!	!	!	!LO:LB:g=original	!	!	!
=17	=17	=17	=17	=17	=17	=17	=17
2D/	ter-	2.d\	-li	4r	.	2.b-\	-li
!	!	!	!	!	!LO:SIC:v:o=ce-	!	!
.	.	.	.	4f\	coe-	.	.
4BB-/	-ra	.	.	4d\	-li	.	.
!	!	!LO:LB:g=original	!	!	!	!	!
=18	=18	=18	=18	=18	=18	=18	=18
!LO:TX:a:t=4.	!	!	!LO:SIC:v:o=ce-	!LO:TX:a:t=4.	!	!	!LO:SIC:v:o=ce-
0.r	.	8d\L	coe-	0.r	.	8b-\L	coe-
.	.	8f\J	.	.	.	8dd\J	.
.	.	8e\L	-li	.	.	8cc\L	-li
.	.	8d\J	.	.	.	8b-\J	.
.	.	8c#X\L	et	.	.	8a\L	et
.	.	8d\J	.	.	.	8b-\J	.
=19-	=19	=19	=19	=19-	=19	=19	=19
.	.	8B-X\L	ter-	.	.	8g\L	ter-
.	.	8d\J	.	.	.	8b-\J	.
.	.	8c\L	.	.	.	8a\L	.
.	.	8B-\J	.	.	.	8g\J	.
.	.	8A\L	-ra	.	.	8f#X/L	-ra
.	.	8B-\J	.	.	.	8g/J	.
!	!	!	!	!	!	!LO:LB:g=original	!
=20-	=20	=20	=20	=20-	=20	=20	=20
.	.	2G/	glo-	.	.	2en/	glo-
.	.	4A/	.	.	.	4fn/	.
=21-	=21	=21	=21	=21-	=21	=21	=21
.	.	8B-\L	.	.	.	8g\L	.
.	.	16c\L	-ri-	.	.	16a\L	-ri-
.	.	16d\JJ	-a	.	.	16b-\JJ	-a
.	.	4A/	tu-	.	.	4f/	tu-
.	.	4G/	-a	.	.	4e/	.
=22	=22	=22	=22	=22	=22	=22	=22
8r	.	4A\	tu-	4r	.	4f/	-a,
8A\	O-	.	.	.	.	.	.
4A\	-san-	4c\	.	4r	.	4r	.
4F\	-na	4A\	-a	4a\	O-	4cc\	O-
=23	=23	=23	=23	=23	=23	=23	=23
8r	.	8r	.	4a\	-san-	4cc\	-san-
8A\	O-	8c\	O-	.	.	.	.
4A\	-san-	4c\	-san-	4f\	.	4a\	.
4F\	-na	4A\	-na	4a\	-na	4cc\	-na
=24	=24	=24	=24	=24	=24	=24	=24
2C/	in	2c\	in	8a\	in	8cc\L	in
.	.	.	.	8g\	ex-	8b-\J	ex-
.	.	.	.	4f\	-cel-	4a\	-cel-
4C/	ex-	4c\	ex-	4e\	.	4g\	.
!	!	!LO:LB:g=original	!	!	!	!	!
=25	=25	=25	=25	=25	=25	=25	=25
4F\	-cel-	2c\	-cel-	4f\	-sis	4a\	-sis
4A\	.	.	.	4r	.	4r	.
4F\	-sis	4A\	-sis	4a\	O-	4cc\	O-
=26	=26	=26	=26	=26	=26	=26	=26
8r	.	8r	.	4a\	-san-	4cc\	-san-
8A\	O-	8c\	O-	.	.	.	.
4A\	-san-	4c\	-san-	4f\	.	4a\	.
4F\	-na	4A\	-na	4a\	-na	4cc\	-na
!	!	!	!	!	!	!LO:LB:g=original	!
=27	=27	=27	=27	=27	=27	=27	=27
8C/	in	4c\	in	8a\	in	8cc\L	in
8C/	ex-	.	.	8g\	ex-	8b-\J	ex-
!LO:LB:g=original	!	!	!	!	!	!	!
2C/	-cel-	4c\	ex-	4f\	-cel-	4a\	-cel-
.	.	8c\L	-cel-	4e\	.	4g\	.
.	.	8B-\J	.	.	.	.	.
!	!	!	!	!LO:LB:g=original	!	!	!
=28	=28	=28	=28	=28	=28	=28	=28
4F\	-sis	4A\	-sis	4f\	-sis	4f/	-sis
4r	.	4r	.	4a\	O-	4cc\	O-
4r	.	4r	.	4f\	.	4a\	.
=29	=29	=29	=29	=29	=29	=29	=29
4C/	O-	4c\	O-	2.e\	-san-	2g\	-san-
4C/	-san-	2c\	-san-	.	.	.	.
4C/	-na	.	.	.	.	4g\	.
=30	=30	=30	=30	=30	=30	=30	=30
4F\	in	4c\	-na	4f\	-na	4a\	-na
4A\	.	4r	.	4r	.	4r	.
4F\	ex-	4r	.	4r	.	4r	.
=31	=31	=31	=31	=31	=31	=31	=31
2.C/	-cel-	8A\	in	8a\	in	8cc\	in
.	.	8B-\	ex-	8a\	ex-	8cc\	ex-
.	.	8c\L	-cel-	4a\	-cel-	4cc\	-cel-
.	.	8d\J	.	.	.	.	.
.	.	8c\L	.	4g\	.	4ee\	.
.	.	8B-\J	.	.	.	.	.
=32	=32	=32	=32	=32	=32	=32	=32
2F\	-sis.	2A\	-sis.	2f\	-sis.	2ff\	-sis.
4r	.	4r	.	4r	.	4r	.
==	==	==	==	==	==	==	==
*-	*-	*-	*-	*-	*-	*-	*-
!!!system-decoration: [(s1,s2,s3,s4)]
!!!ENC: Anastazja Marusiak
!!!END: 2023-11-13
!!!YEM: Copyright © 2023 by [Copyright Holder]
!!!ENC: Leszek Kubiak
!!!END: 2024-01-22
